world_stage/static/flags/rect/svn.svg

<svg height="800" viewBox="0 0 1208.892 800" width="1208.892" xmlns="http://www.w3.org/2000/svg" xmlns:xlink="http://www.w3.org/1999/xlink"><clipPath id="a"><path d="m0 600h906.669v-600h-906.669z" transform="translate(-371.32131 -389.55661)"/></clipPath><clipPath id="b"><path d="m0 600h906.669v-600h-906.669z" transform="translate(-241.78711 -376.95701)"/></clipPath><clipPath id="c"><path d="m0 600h906.669v-600h-906.669z" transform="translate(-244.38721 -367.25491)"/></clipPath><clipPath id="d"><path d="m0 600h906.669v-600h-906.669z" transform="translate(-244.38721 -356.05081)"/></clipPath><clipPath id="e"><path d="m0 600h906.669v-600h-906.669z" transform="translate(-300.00201 -461.85451)"/></clipPath><clipPath id="f"><path d="m0 600h906.669v-600h-906.669z" transform="translate(-278.17141 -490.96191)"/></clipPath><clipPath id="g"><path d="m0 600h906.669v-600h-906.669z" transform="translate(-321.83251 -490.96191)"/></clipPath><clipPath id="h"><path d="m0 600h906.669v-600h-906.669z" transform="translate(-227.82861 -485.01071)"/></clipPath><g transform="matrix(1.3333333 0 0 -1.3333333 0 800)"><path d="m0 0h906.669v600h-906.669z" fill="#ed1c24"/><path d="m0 200h906.669v400h-906.669z" fill="#005da4"/><path d="m0 400h906.669v200.001h-906.669z" fill="#fff"/></g><path clip-path="url(#a)" d="m0 0 6.301 92.982c-49.129 23.281-106.112 23.281-155.24 0l6.3-92.982c2.829-41.781 31.232-77.445 71.32-89.554 40.088 12.109 68.49 47.773 71.319 89.554" fill="#005da4" transform="matrix(1.3333333 0 0 -1.3333333 495.09507 280.5912)"/><path clip-path="url(#b)" d="m0 0c6.749-30.372 28.794-55.057 58.215-65.181 29.42 10.124 51.467 34.809 58.215 65.181l-29.108 38.811-11.643-15.525-17.464 34.93-17.465-34.93-11.643 15.525z" fill="#fff" transform="matrix(1.3333333 0 0 -1.3333333 322.3828 297.39067)"/><path clip-path="url(#c)" d="m0 0c5.358-9.281 17.227-12.461 26.508-7.103 6.004 3.466 13.401 3.466 19.405 0s13.401-3.466 19.405 0 13.401 3.466 19.405 0c9.281-5.358 21.149-2.178 26.507 7.103h.001v-5.602c-5.358-9.281-17.227-12.46-26.508-7.102-6.004 3.466-13.401 3.466-19.405 0-6.004-3.467-13.401-3.467-19.405 0-6.004 3.466-13.401 3.466-19.405 0-9.281-5.358-21.149-2.179-26.508 7.102z" fill="#005da4" transform="matrix(1.3333333 0 0 -1.3333333 325.8496 310.3268)"/><path clip-path="url(#d)" d="m0 0c5.358-9.281 17.227-12.461 26.508-7.103 6.004 3.467 13.401 3.467 19.405 0 6.004-3.465 13.401-3.465 19.405 0 6.004 3.467 13.401 3.467 19.405 0 9.281-5.358 21.149-2.178 26.507 7.103h.001v-5.602c-5.358-9.281-17.227-12.46-26.508-7.102-6.004 3.467-13.401 3.467-19.405 0-6.004-3.466-13.401-3.466-19.405 0-6.004 3.467-13.401 3.467-19.405 0-9.281-5.358-21.149-2.179-26.508 7.102z" fill="#005da4" transform="matrix(1.3333333 0 0 -1.3333333 325.8496 325.2656)"/><g fill="#fd0"><path clip-path="url(#e)" d="m0 0 1.456-4.756 4.846 1.117-3.391-3.638 3.391-3.638-4.846 1.117-1.456-4.756-1.456 4.756-4.846-1.117 3.391 3.638-3.391 3.638 4.846-1.117z" transform="matrix(1.3333333 0 0 -1.3333333 400.00267 184.194)"/><path clip-path="url(#f)" d="m0 0 1.456-4.756 4.846 1.117-3.391-3.638 3.391-3.638-4.846 1.117-1.456-4.756-1.456 4.756-4.846-1.117 3.391 3.638-3.391 3.638 4.846-1.117z" transform="matrix(1.3333333 0 0 -1.3333333 370.8952 145.38413)"/><path clip-path="url(#g)" d="m0 0 1.456-4.756 4.846 1.117-3.391-3.638 3.391-3.638-4.846 1.117-1.456-4.756-1.455 4.756-4.847-1.117 3.391 3.638-3.391 3.638 4.847-1.117z" transform="matrix(1.3333333 0 0 -1.3333333 429.11 145.38413)"/></g><path clip-path="url(#h)" d="m0 0 6.442-95.078c2.634-38.834 28.678-72.138 65.731-84.056 37.055 11.918 63.098 45.222 65.732 84.056l6.442 95.078c1.802-.854 3.617-1.677 5.446-2.471l-6.3-92.982c-2.829-41.781-31.232-77.445-71.32-89.554-40.088 12.109-68.49 47.773-71.319 89.554l-6.301 92.982c1.829.794 3.645 1.617 5.447 2.471" fill="#ed1c24" transform="matrix(1.3333333 0 0 -1.3333333 303.77147 153.31907)"/></svg>

<?xml version="1.0" encoding="UTF-8" standalone="no"?>
<!-- Created with Inkscape (http://www.inkscape.org/) -->

<svg
   version="1.1"
   id="svg1"
   width="1208.892"
   height="800"
   viewBox="0 0 1208.892 800"
   sodipodi:docname="si.ai"
   xmlns:inkscape="http://www.inkscape.org/namespaces/inkscape"
   xmlns:sodipodi="http://sodipodi.sourceforge.net/DTD/sodipodi-0.dtd"
   xmlns="http://www.w3.org/2000/svg"
   xmlns:svg="http://www.w3.org/2000/svg">
  <defs
     id="defs1">
    <clipPath
       clipPathUnits="userSpaceOnUse"
       id="clipPath5">
      <path
         d="M 0,600 H 906.669 V 0 H 0 Z"
         transform="translate(-371.32131,-389.55661)"
         id="path5" />
    </clipPath>
    <clipPath
       clipPathUnits="userSpaceOnUse"
       id="clipPath7">
      <path
         d="M 0,600 H 906.669 V 0 H 0 Z"
         transform="translate(-241.78711,-376.95701)"
         id="path7" />
    </clipPath>
    <clipPath
       clipPathUnits="userSpaceOnUse"
       id="clipPath9">
      <path
         d="M 0,600 H 906.669 V 0 H 0 Z"
         transform="translate(-244.38721,-367.25491)"
         id="path9" />
    </clipPath>
    <clipPath
       clipPathUnits="userSpaceOnUse"
       id="clipPath11">
      <path
         d="M 0,600 H 906.669 V 0 H 0 Z"
         transform="translate(-244.38721,-356.05081)"
         id="path11" />
    </clipPath>
    <clipPath
       clipPathUnits="userSpaceOnUse"
       id="clipPath13">
      <path
         d="M 0,600 H 906.669 V 0 H 0 Z"
         transform="translate(-300.00201,-461.85451)"
         id="path13" />
    </clipPath>
    <clipPath
       clipPathUnits="userSpaceOnUse"
       id="clipPath15">
      <path
         d="M 0,600 H 906.669 V 0 H 0 Z"
         transform="translate(-278.17141,-490.96191)"
         id="path15" />
    </clipPath>
    <clipPath
       clipPathUnits="userSpaceOnUse"
       id="clipPath17">
      <path
         d="M 0,600 H 906.669 V 0 H 0 Z"
         transform="translate(-321.83251,-490.96191)"
         id="path17" />
    </clipPath>
    <clipPath
       clipPathUnits="userSpaceOnUse"
       id="clipPath19">
      <path
         d="M 0,600 H 906.669 V 0 H 0 Z"
         transform="translate(-227.82861,-485.01071)"
         id="path19" />
    </clipPath>
  </defs>
  <sodipodi:namedview
     id="namedview1"
     pagecolor="#ffffff"
     bordercolor="#000000"
     borderopacity="0.25"
     inkscape:showpageshadow="2"
     inkscape:pageopacity="0.0"
     inkscape:pagecheckerboard="0"
     inkscape:deskcolor="#d1d1d1">
    <inkscape:page
       x="0"
       y="0"
       inkscape:label="1"
       id="page1"
       width="1208.892"
       height="800"
       margin="0"
       bleed="0" />
  </sodipodi:namedview>
  <g
     id="layer-MC0"
     inkscape:groupmode="layer"
     inkscape:label="Layer 1">
    <path
       id="path1"
       d="M 0,0 H 906.669 V 600 H 0 Z"
       style="fill:#ed1c24;fill-opacity:1;fill-rule:nonzero;stroke:none"
       transform="matrix(1.3333333,0,0,-1.3333333,0,800)" />
    <path
       id="path2"
       d="M 0,200 H 906.669 V 600 H 0 Z"
       style="fill:#005da4;fill-opacity:1;fill-rule:nonzero;stroke:none"
       transform="matrix(1.3333333,0,0,-1.3333333,0,800)" />
    <path
       id="path3"
       d="M 0,400 H 906.669 V 600.001 H 0 Z"
       style="fill:#ffffff;fill-opacity:1;fill-rule:nonzero;stroke:none"
       transform="matrix(1.3333333,0,0,-1.3333333,0,800)" />
    <path
       id="path4"
       d="m 0,0 6.301,92.982 c -49.129,23.281 -106.112,23.281 -155.24,0 L -142.639,0 c 2.829,-41.781 31.232,-77.445 71.32,-89.554 C -31.231,-77.445 -2.829,-41.781 0,0"
       style="fill:#005da4;fill-opacity:1;fill-rule:nonzero;stroke:none"
       transform="matrix(1.3333333,0,0,-1.3333333,495.09507,280.5912)"
       clip-path="url(#clipPath5)" />
    <path
       id="path6"
       d="M 0,0 C 6.749,-30.372 28.794,-55.057 58.215,-65.181 87.635,-55.057 109.682,-30.372 116.43,0 L 87.322,38.811 75.679,23.286 58.215,58.216 40.75,23.286 29.107,38.811 0,0"
       style="fill:#ffffff;fill-opacity:1;fill-rule:nonzero;stroke:none"
       transform="matrix(1.3333333,0,0,-1.3333333,322.3828,297.39067)"
       clip-path="url(#clipPath7)" />
    <path
       id="path8"
       d="m 0,0 c 5.358,-9.281 17.227,-12.461 26.508,-7.103 6.004,3.466 13.401,3.466 19.405,0 6.004,-3.466 13.401,-3.466 19.405,0 6.004,3.466 13.401,3.466 19.405,0 9.281,-5.358 21.149,-2.178 26.507,7.103 h 10e-4 v -5.602 c -5.358,-9.281 -17.227,-12.46 -26.508,-7.102 -6.004,3.466 -13.401,3.466 -19.405,0 -6.004,-3.467 -13.401,-3.467 -19.405,0 -6.004,3.466 -13.401,3.466 -19.405,0 C 17.227,-18.062 5.359,-14.883 0,-5.602 v 0 z"
       style="fill:#005da4;fill-opacity:1;fill-rule:nonzero;stroke:none"
       transform="matrix(1.3333333,0,0,-1.3333333,325.8496,310.3268)"
       clip-path="url(#clipPath9)" />
    <path
       id="path10"
       d="m 0,0 c 5.358,-9.281 17.227,-12.461 26.508,-7.103 6.004,3.467 13.401,3.467 19.405,0 6.004,-3.465 13.401,-3.465 19.405,0 6.004,3.467 13.401,3.467 19.405,0 9.281,-5.358 21.149,-2.178 26.507,7.103 h 10e-4 v -5.602 c -5.358,-9.281 -17.227,-12.46 -26.508,-7.102 -6.004,3.467 -13.401,3.467 -19.405,0 -6.004,-3.466 -13.401,-3.466 -19.405,0 -6.004,3.467 -13.401,3.467 -19.405,0 C 17.227,-18.062 5.359,-14.883 0,-5.602 v 0 z"
       style="fill:#005da4;fill-opacity:1;fill-rule:nonzero;stroke:none"
       transform="matrix(1.3333333,0,0,-1.3333333,325.8496,325.2656)"
       clip-path="url(#clipPath11)" />
    <path
       id="path12"
       d="M 0,0 1.456,-4.756 6.302,-3.639 2.911,-7.277 6.302,-10.915 1.456,-9.798 0,-14.554 l -1.456,4.756 -4.846,-1.117 3.391,3.638 -3.391,3.638 4.846,-1.117 z"
       style="fill:#ffdd00;fill-opacity:1;fill-rule:nonzero;stroke:none"
       transform="matrix(1.3333333,0,0,-1.3333333,400.00267,184.194)"
       clip-path="url(#clipPath13)" />
    <path
       id="path14"
       d="M 0,0 1.456,-4.756 6.302,-3.639 2.911,-7.277 6.302,-10.915 1.456,-9.798 0,-14.554 l -1.456,4.756 -4.846,-1.117 3.391,3.638 -3.391,3.638 4.846,-1.117 z"
       style="fill:#ffdd00;fill-opacity:1;fill-rule:nonzero;stroke:none"
       transform="matrix(1.3333333,0,0,-1.3333333,370.8952,145.38413)"
       clip-path="url(#clipPath15)" />
    <path
       id="path16"
       d="M 0,0 1.456,-4.756 6.302,-3.639 2.911,-7.277 6.302,-10.915 1.456,-9.798 0,-14.554 l -1.455,4.756 -4.847,-1.117 3.391,3.638 -3.391,3.638 4.847,-1.117 z"
       style="fill:#ffdd00;fill-opacity:1;fill-rule:nonzero;stroke:none"
       transform="matrix(1.3333333,0,0,-1.3333333,429.11,145.38413)"
       clip-path="url(#clipPath17)" />
    <path
       id="path18"
       d="m 0,0 6.442,-95.078 c 2.634,-38.834 28.678,-72.138 65.731,-84.056 37.055,11.918 63.098,45.222 65.732,84.056 L 144.347,0 c 1.802,-0.854 3.617,-1.677 5.446,-2.471 l -6.3,-92.982 c -2.829,-41.781 -31.232,-77.445 -71.32,-89.554 -40.088,12.109 -68.49,47.773 -71.319,89.554 L -5.447,-2.471 C -3.618,-1.677 -1.802,-0.854 0,0"
       style="fill:#ed1c24;fill-opacity:1;fill-rule:nonzero;stroke:none"
       transform="matrix(1.3333333,0,0,-1.3333333,303.77147,153.31907)"
       clip-path="url(#clipPath19)" />
  </g>
</svg>
